X:13
T:Miss Mary Ann Whitefoord's Strathspey
C:W. M. Shaw
S:Petrie's Third Collection of Strathspey Reels and Country Dances &c.
Z:Steve Wyrick <sjwyrick'at'gmail'dot'com>, 7/30/05
N:Petrie's Third Collection, page 6
L:1/8
M:C
R:Strathspey
K:D
"^Slow"
A,|A,<DD>E F/G/A/G/FD|B,<EE>F (G/F/E/D/)EF|A,<DD>E F/G/A/G/ FD|E<BA>C D2D:|f/g/|a>ba<f d>ef<d|e>f g/f/e/d/ c<ec<A|
a>ba<f d>ef<d|B<ge<c dD-Df|a>ba<f d>ef<d|Be/f/ g/f/e/d/ c<ec<A|B<dA<d G<dF<d|EF/G/ A/G/F/E/ FDD|]
